X: 31376
T: Paddy O'Rafferty
R: jig
M: 6/8
K: Gmajor
G/A/BD D>ED|DcB AGA|G/A/BD DEF|G>AG GED|
G/A/BD D>ED|DcB cde|d>cB AGA|G>AG GED|
d>Bd ece|d>cB ABG|GBd dBG|A>BG FED|
dBd ece|def g>fe|d>cB AGA|G>AG GED:|

